learning-site/svg (73).svg

<svg xmlns="http://www.w3.org/2000/svg" xmlns:xlink="http://www.w3.org/1999/xlink" viewBox="0 0 100 100" version="1.1"><!-- Generator: Sketch 52.4 (67378) - http://www.bohemiancoding.com/sketch --><title>Creating surveys with Microsoft Dynamics 365 Voice of the Customer/response-routing-and-survey-options</title><desc>Created with Sketch.</desc><defs><rect id="path-1" x="0" y="0" width="96" height="96" rx="48"></rect><filter x="-7.4%" y="-12.9%" width="114.8%" height="125.8%" filterUnits="objectBoundingBox" id="filter-3"><feOffset dx="0" dy="2" in="SourceAlpha" result="shadowOffsetOuter1"></feOffset><feColorMatrix values="0 0 0 0 0   0 0 0 0 0   0 0 0 0 0  0 0 0 0.100118886 0" type="matrix" in="shadowOffsetOuter1" result="shadowMatrixOuter1"></feColorMatrix><feMerge><feMergeNode in="shadowMatrixOuter1"></feMergeNode><feMergeNode in="SourceGraphic"></feMergeNode></feMerge></filter><filter x="-8.9%" y="-10.3%" width="117.8%" height="120.5%" filterUnits="objectBoundingBox" id="filter-4"><feOffset dx="0" dy="2" in="SourceAlpha" result="shadowOffsetOuter1"></feOffset><feColorMatrix values="0 0 0 0 0   0 0 0 0 0   0 0 0 0 0  0 0 0 0.100118886 0" type="matrix" in="shadowOffsetOuter1" result="shadowMatrixOuter1"></feColorMatrix><feMerge><feMergeNode in="shadowMatrixOuter1"></feMergeNode><feMergeNode in="SourceGraphic"></feMergeNode></feMerge></filter></defs><g id="Badges" stroke="none" stroke-width="1" fill="none" fill-rule="evenodd"><g id="Creating-surveys-with-Microsoft-Dynamics-365-Voice-of-the-Customer" transform="translate(-50.000000, -460.000000)"><g id="Creating-surveys-with-Microsoft-Dynamics-365-Voice-of-the-Customer/response-routing-and-survey-options" transform="translate(50.000000, 460.000000)"><g id="Mask" transform="translate(2.000000, 2.000000)"><mask id="mask-2" fill="white"><use xlink:href="#path-1"></use></mask><use id="BG" fill="#01B6C3" xlink:href="#path-1"></use><g id="Group-3" mask="url(#mask-2)"><g transform="translate(21.279073, 20.117294)"><g id="Group-2" filter="url(#filter-3)" transform="translate(0.000000, 24.775526)"><path d="M51.1182951,26.720927 L2.32355887,26.720927 C1.03979259,26.720927 0,25.6799726 0,24.3973681 C0,23.1136018 1.03979259,22.0738093 2.32355887,22.0738093 L51.1182951,22.0738093 C52.4008996,22.0738093 53.441854,23.1136018 53.441854,24.3973681 C53.441854,25.6799726 52.4008996,26.720927 51.1182951,26.720927" id="Fill-453" fill="#182A37"></path><polygon id="Fill-455" fill="#182A37" points="23.2355887 24.3973681 30.2062653 24.3973681 30.2062653 -1.8189894e-12 23.2355887 -1.8189894e-12"></polygon><path d="M23.2355887,2.32239709 L23.2355887,3.48417652 L25.5591476,3.48417652 C26.2004498,3.48417652 26.720927,4.00465371 26.720927,4.64595596 L26.720927,18.5873092 L30.2062653,18.5873092 L30.2062653,2.32239709 L23.2355887,2.32239709" id="Fill-473" fill="#12202B"></path><path d="M0,24.3973681 C0,25.6799726 1.04095437,26.720927 2.32355887,26.720927 L51.1182951,26.720927 C52.4008996,26.720927 53.441854,25.6799726 53.441854,24.3973681 L53.441854,24.3962063 L0,24.3962063 L0,24.3973681" id="Fill-474" fill="#12202B"></path><path d="M36.0151625,29.0444859 C36.0151625,29.6834645 35.4923617,30.2062653 34.853383,30.2062653 L18.5884709,30.2062653 C17.9494923,30.2062653 17.4266915,29.6834645 17.4266915,29.0444859 L17.4266915,19.7502504 C17.4266915,19.1112717 17.9494923,18.5884709 18.5884709,18.5884709 L34.853383,18.5884709 C35.4923617,18.5884709 36.0151625,19.1112717 36.0151625,19.7502504 L36.0151625,29.0444859" id="Fill-475" fill="#30404D"></path><path d="M34.853383,18.5884709 L26.720927,18.5884709 L26.720927,25.5579858 C26.720927,26.841752 25.6811344,27.8815446 24.3973681,27.8815446 L17.4266915,27.8815446 L17.4266915,29.0444859 C17.4266915,29.6834645 17.9494923,30.2062653 18.5884709,30.2062653 L34.853383,30.2062653 C35.4923617,30.2062653 36.0151625,29.6834645 36.0151625,29.0444859 L36.0151625,19.7502504 C36.0151625,19.1112717 35.4923617,18.5884709 34.853383,18.5884709" id="Fill-476" fill="#182A37"></path></g><g id="Group" filter="url(#filter-4)" transform="translate(4.165571, 0.783622)"><path d="M43.0293723,0 L1.38871589,0 C0.621833803,0 0.000694010941,0.621833803 0.000694010941,1.38802188 L0.000694010941,27.7604376 C0.000694010941,28.5266257 0.621833803,29.1484595 1.38871589,29.1484595 L6.94080342,29.1484595 L6.94080342,37.4765908 C6.94080342,38.0380457 7.27878675,38.5439796 7.79790693,38.759123 C7.96932763,38.8299121 8.14977048,38.8646127 8.32813129,38.8646127 C8.68971099,38.8646127 9.04504459,38.7237285 9.31015677,38.4579223 L18.6203135,29.1484595 L43.0293723,29.1484595 C43.7955604,29.1484595 44.4173942,28.5266257 44.4173942,27.7604376 L44.4173942,1.38802188 C44.4173942,0.621833803 43.7955604,0 43.0293723,0" id="Fill-138" fill="#EFB252"></path><path d="M16.6569566,14.5742298 C16.6569566,16.1072999 15.413983,17.3502735 13.8809128,17.3502735 C12.3478427,17.3502735 11.1048691,16.1072999 11.1048691,14.5742298 C11.1048691,13.0404656 12.3478427,11.798186 13.8809128,11.798186 C15.413983,11.798186 16.6569566,13.0404656 16.6569566,14.5742298" id="Fill-139" fill="#FFFFFE"></path><path d="M24.9850879,14.5742298 C24.9850879,16.1072999 23.7421143,17.3502735 22.2090441,17.3502735 C20.675974,17.3502735 19.4330004,16.1072999 19.4330004,14.5742298 C19.4330004,13.0404656 20.675974,11.798186 22.2090441,11.798186 C23.7421143,11.798186 24.9850879,13.0404656 24.9850879,14.5742298" id="Fill-140" fill="#FFFFFE"></path><path d="M33.3132192,14.5742298 C33.3132192,16.1072999 32.0702456,17.3502735 30.5371754,17.3502735 C29.0041052,17.3502735 27.7611316,16.1072999 27.7611316,14.5742298 C27.7611316,13.0404656 29.0041052,11.798186 30.5371754,11.798186 C32.0702456,11.798186 33.3132192,13.0404656 33.3132192,14.5742298" id="Fill-141" fill="#FFFFFE"></path></g></g></g></g><g id="Dynamic-Border" stroke="#1D8E96" stroke-width="4"><rect id="Azure-Border" x="2" y="2" width="96" height="96" rx="48"></rect></g></g></g></g></svg>

<svg xmlns="http://www.w3.org/2000/svg" xmlns:xlink="http://www.w3.org/1999/xlink" viewBox="0 0 100 100"><defs><rect id="a" x="0" y="0" width="96" height="96" rx="48"/><filter x="-7.4%" y="-12.9%" width="114.8%" height="125.8%" filterUnits="objectBoundingBox" id="c"><feOffset dy="2" in="SourceAlpha" result="shadowOffsetOuter1"/><feColorMatrix values="0 0 0 0 0 0 0 0 0 0 0 0 0 0 0 0 0 0 0.100118886 0" in="shadowOffsetOuter1" result="shadowMatrixOuter1"/><feMerge><feMergeNode in="shadowMatrixOuter1"/><feMergeNode in="SourceGraphic"/></feMerge></filter><filter x="-8.9%" y="-10.3%" width="117.8%" height="120.5%" filterUnits="objectBoundingBox" id="d"><feOffset dy="2" in="SourceAlpha" result="shadowOffsetOuter1"/><feColorMatrix values="0 0 0 0 0 0 0 0 0 0 0 0 0 0 0 0 0 0 0.100118886 0" in="shadowOffsetOuter1" result="shadowMatrixOuter1"/><feMerge><feMergeNode in="shadowMatrixOuter1"/><feMergeNode in="SourceGraphic"/></feMerge></filter></defs><g fill="none" fill-rule="evenodd"><g transform="translate(2 2)"><mask id="b" fill="#fff"><use xlink:href="#a"/></mask><use fill="#01B6C3" xlink:href="#a"/><g mask="url(#b)"><g filter="url(#c)" transform="translate(21.28 44.893)"><path d="M51.118 26.72H2.324a2.324 2.324 0 0 1 0-4.646h48.794a2.324 2.324 0 0 1 0 4.647" fill="#182A37"/><path fill="#182A37" d="M23.236 24.397h6.97V0h-6.97z"/><path d="M23.236 2.322v1.162h2.323c.641 0 1.162.52 1.162 1.162v13.941h3.485V2.322h-6.97M0 24.397a2.324 2.324 0 0 0 2.324 2.324h48.794a2.324 2.324 0 0 0 2.324-2.324H0" fill="#12202B"/><path d="M36.015 29.044c0 .64-.523 1.162-1.162 1.162H18.588a1.165 1.165 0 0 1-1.161-1.162V19.75c0-.639.522-1.162 1.161-1.162h16.265c.64 0 1.162.523 1.162 1.162v9.294" fill="#30404D"/><path d="M34.853 18.588h-8.132v6.97a2.323 2.323 0 0 1-2.324 2.324h-6.97v1.162c0 .64.522 1.162 1.161 1.162h16.265c.64 0 1.162-.523 1.162-1.162V19.75c0-.639-.523-1.162-1.162-1.162" fill="#182A37"/></g><g filter="url(#d)" transform="translate(25.445 20.9)"><path d="M43.03 0H1.388C.622 0 0 .622 0 1.388V27.76c0 .767.62 1.388 1.388 1.388H6.94v8.329a1.388 1.388 0 0 0 2.37.98l9.31-9.309h24.408c.767 0 1.388-.621 1.388-1.388V1.388C44.417.622 43.796 0 43.03 0" fill="#EFB252"/><path d="M16.657 14.574a2.776 2.776 0 1 1-5.552 0 2.776 2.776 0 0 1 5.552 0M24.985 14.574a2.776 2.776 0 1 1-5.552 0 2.776 2.776 0 0 1 5.552 0M33.313 14.574a2.776 2.776 0 1 1-5.552 0 2.776 2.776 0 0 1 5.552 0" fill="#FFFFFE"/></g></g></g><rect x="2" y="2" width="96" height="96" rx="48" stroke="#1D8E96" stroke-width="4"/></g></svg>
